icons/svg/amenity/letter_box.svg

<?xml version="1.0" encoding="UTF-8" standalone="no"?>
<!-- Created with Inkscape (http://www.inkscape.org/) -->

<svg
   xmlns:dc="http://purl.org/dc/elements/1.1/"
   xmlns:cc="http://creativecommons.org/ns#"
   xmlns:rdf="http://www.w3.org/1999/02/22-rdf-syntax-ns#"
   xmlns:svg="http://www.w3.org/2000/svg"
   xmlns="http://www.w3.org/2000/svg"
   xmlns:sodipodi="http://sodipodi.sourceforge.net/DTD/sodipodi-0.dtd"
   xmlns:inkscape="http://www.inkscape.org/namespaces/inkscape"
   version="1.0"
   width="580"
   height="580"
   id="svg2"
   sodipodi:version="0.32"
   inkscape:version="0.91 r13725"
   sodipodi:docname="letter_box.svg"
   inkscape:output_extension="org.inkscape.output.svg.inkscape">
  <defs
     id="defs12">
    <inkscape:perspective
       sodipodi:type="inkscape:persp3d"
       inkscape:vp_x="0 : 290 : 1"
       inkscape:vp_y="0 : 1000 : 0"
       inkscape:vp_z="580 : 290 : 1"
       inkscape:persp3d-origin="290 : 193.33333 : 1"
       id="perspective14" />
  </defs>
  <metadata
     id="metadata2975">
    <rdf:RDF>
      <cc:Work
         rdf:about="">
        <dc:format>image/svg+xml</dc:format>
        <dc:type
           rdf:resource="http://purl.org/dc/dcmitype/StillImage" />
        <cc:license
           rdf:resource="http://web.resource.org/cc/PublicDomain" />
        <dc:language>en</dc:language>
      </cc:Work>
    </rdf:RDF>
  </metadata>
  <sodipodi:namedview
     inkscape:window-height="1006"
     inkscape:window-width="1920"
     inkscape:pageshadow="2"
     inkscape:pageopacity="0.0"
     guidetolerance="10.0"
     gridtolerance="10.0"
     objecttolerance="10.0"
     borderopacity="1.0"
     bordercolor="#666666"
     pagecolor="#ffffff"
     id="base"
     inkscape:zoom="0.46083856"
     inkscape:cx="89.977702"
     inkscape:cy="422.10014"
     inkscape:window-x="1920"
     inkscape:window-y="0"
     inkscape:current-layer="svg2"
     showgrid="false"
     inkscape:window-maximized="1" />
  <g
     id="g1327">
    <path
       d="M 66.275,1.768 C 24.94,1.768 1.704,23.139 1.704,66.804 L 1.704,516.927 C 1.704,557.771 22.599,579.156 63.896,579.156 L 515.92,579.156 C 557.227,579.156 578.149,558.841 578.149,516.927 L 578.149,66.804 C 578.149,24.203 557.227,1.768 514.628,1.768 C 514.624,1.768 66.133,1.625 66.275,1.768 z "
       style="fill:#111;stroke:#eee;stroke-width:3.40799999"
       id="path1329" />
  </g>
  <path
     style="color:#000000;clip-rule:nonzero;display:inline;overflow:visible;visibility:visible;opacity:1;isolation:auto;mix-blend-mode:normal;color-interpolation:sRGB;color-interpolation-filters:linearRGB;solid-color:#000000;solid-opacity:1;fill:none;fill-opacity:0.51764706;fill-rule:nonzero;stroke:#ffffff;stroke-width:30;stroke-linecap:round;stroke-linejoin:round;stroke-miterlimit:4;stroke-dasharray:none;stroke-dashoffset:0;stroke-opacity:1;marker:none;color-rendering:auto;image-rendering:auto;shape-rendering:auto;text-rendering:auto;enable-background:accumulate"
     d="m 185.93342,69.358781 208.13315,0 c 91.05922,0 130.42353,34.251199 130.42353,106.982289 l 0,155.58481 -468.980194,0 0,-155.58481 c 0,-72.73109 39.364295,-106.982289 130.423514,-106.982289 z"
     id="rect4136"
     inkscape:connector-curvature="0"
     sodipodi:nodetypes="sssccss" />
  <path
     style="color:#000000;clip-rule:nonzero;display:inline;overflow:visible;visibility:visible;opacity:1;isolation:auto;mix-blend-mode:normal;color-interpolation:sRGB;color-interpolation-filters:linearRGB;solid-color:#000000;solid-opacity:1;fill:none;fill-opacity:0.51764706;fill-rule:nonzero;stroke:#ffffff;stroke-width:29.99999809;stroke-linecap:round;stroke-linejoin:round;stroke-miterlimit:4;stroke-dasharray:none;stroke-dashoffset:0;stroke-opacity:1;marker:none;color-rendering:auto;image-rendering:auto;shape-rendering:auto;text-rendering:auto;enable-background:accumulate"
     d="m 163.91184,71.71489 c 77.97758,0 105.86924,54.58565 105.86924,127.89094 l 0,132.32005 -214.271178,0 0,-132.32005 c 0,-73.30529 30.424355,-127.89094 108.401938,-127.89094 z"
     id="rect4136-3"
     inkscape:connector-curvature="0"
     sodipodi:nodetypes="csccsc" />
  <path
     style="fill:#ffffff;fill-opacity:1;fill-rule:evenodd;stroke:none;stroke-width:1px;stroke-linecap:butt;stroke-linejoin:miter;stroke-opacity:1"
     d="M 397.13798,58.784599 C 377.51811,59.122097 232.04265,75.683037 232.04265,75.683036 l 36.05932,104.339034 1.53358,150.37029 247.80321,6.90395 9.97461,-177.22265 c 0,0 -28.38587,-56.77179 -34.52343,-65.210936 -6.13757,-8.43915 -85.15889,-35.291399 -94.36524,-36.058594 -0.2877,-0.02398 -0.75382,-0.03042 -1.38672,-0.01953 z m -54.44432,92.522171 89.88507,0 c 8.31386,8.3e-4 15.05338,6.74034 15.05421,15.05421 l 0,48.83715 c 0.11877,8.39748 -6.6559,15.26861 -15.05421,15.26861 -8.39832,0 -15.17298,-6.87113 -15.05421,-15.26861 l 0,-33.78294 -74.83086,0 c -8.39748,0.11877 -15.26862,-6.6559 -15.26862,-15.05421 0,-8.39832 6.87114,-15.17298 15.26862,-15.05421 z"
     id="path4159"
     inkscape:connector-curvature="0"
     sodipodi:nodetypes="scccccsssccccscccsc" />
  <path
     style="fill:none;fill-rule:evenodd;stroke:#ffffff;stroke-width:35;stroke-linecap:round;stroke-linejoin:miter;stroke-miterlimit:4;stroke-dasharray:none;stroke-opacity:1"
     d="m 130.01346,180.02112 62.12768,0"
     id="path4161"
     inkscape:connector-curvature="0" />
  <rect
     style="color:#000000;clip-rule:nonzero;display:inline;overflow:visible;visibility:visible;opacity:1;isolation:auto;mix-blend-mode:normal;color-interpolation:sRGB;color-interpolation-filters:linearRGB;solid-color:#000000;solid-opacity:1;fill:#ffffff;fill-opacity:1;fill-rule:nonzero;stroke:#ffffff;stroke-width:35;stroke-linecap:round;stroke-linejoin:round;stroke-miterlimit:4;stroke-dasharray:none;stroke-dashoffset:0;stroke-opacity:1;marker:none;color-rendering:auto;image-rendering:auto;shape-rendering:auto;text-rendering:auto;enable-background:accumulate"
     id="rect4181"
     width="80.288406"
     height="160.57684"
     x="247.90395"
     y="346.80945"
     ry="0" />
</svg>

<svg width="580" height="580" viewBox="0 0 580 580" fill="none" xmlns="http://www.w3.org/2000/svg">
<g clip-path="url(#clip0)">
<path d="M66.2751 1.76802C24.9401 1.76802 1.7041 23.139 1.7041 66.804V516.927C1.7041 557.771 22.5991 579.156 63.8961 579.156H515.92C557.227 579.156 578.149 558.841 578.149 516.927V66.804C578.149 24.203 557.227 1.76802 514.628 1.76802C514.624 1.76802 66.1331 1.62502 66.2751 1.76802Z" fill="#111111" stroke="#EEEEEE" stroke-width="3.408"/>
<path d="M185.934 69.3588H394.067C485.126 69.3588 524.49 103.61 524.49 176.341V331.926H55.51V176.341C55.51 103.61 94.8743 69.3588 185.934 69.3588V69.3588Z" stroke="white" stroke-width="30" stroke-linecap="round" stroke-linejoin="round"/>
<path d="M163.912 71.7148C241.89 71.7148 269.781 126.3 269.781 199.606V331.926H55.51V199.606C55.51 126.3 85.9344 71.7148 163.912 71.7148V71.7148Z" stroke="white" stroke-width="30" stroke-linecap="round" stroke-linejoin="round"/>
<path fill-rule="evenodd" clip-rule="evenodd" d="M397.138 58.7845C377.518 59.122 232.043 75.683 232.043 75.683L268.102 180.022L269.636 330.392L517.439 337.296L527.413 160.074C527.413 160.074 499.028 103.302 492.89 94.8627C486.752 86.4235 407.731 59.5713 398.525 58.8041C398.237 58.7801 397.771 58.7737 397.138 58.7845V58.7845ZM342.694 151.307H432.579C440.893 151.308 447.632 158.047 447.633 166.361V215.198C447.752 223.596 440.977 230.467 432.579 230.467C424.18 230.467 417.406 223.596 417.525 215.198V181.415H342.694C334.296 181.534 327.425 174.759 327.425 166.361C327.425 157.963 334.296 151.188 342.694 151.307Z" fill="white"/>
<path d="M130.013 180.021H192.141" stroke="white" stroke-width="35" stroke-linecap="round"/>
<path d="M328.192 346.809H247.904V507.386H328.192V346.809Z" fill="white" stroke="white" stroke-width="35" stroke-linecap="round" stroke-linejoin="round"/>
</g>
<defs>
<clipPath id="clip0">
<path d="M0 0H580V580H0V0Z" fill="white"/>
</clipPath>
</defs>
</svg>
